X: 3
T: The Flying Wheelchair
R: jig
M: 6/8
L: 1/8
K: Gmaj
G2 A GED | E/F/GE ABd | e2 g edB | Age dBA |GBA GED | E2 G AB/c/d | e/f/ge edB | AeG E2 :|GA/B/c d3 | deB dBA | GG/A/B e3 | e/f/gf edB |GB/c/d g2 b | aef g2 b | age d2 G | A/B/cG E2 :|


Tune 4185	Setting 16942

